packages/icons/svg/Outline/twitter.svg

<svg fill="none" height="24" viewBox="0 0 24 24" width="24" xmlns="http://www.w3.org/2000/svg"><path clip-rule="evenodd" d="m19.0156 6.65455v.002zm-10.50299 11.34305c.024 0 .05.001.074.003 5.69499-.037 9.09399-4.388 9.09399-8.59402 0-.382.196-.629.37-.848.158-.2.403-.508.621-.952-.793-.008-1.501-.36-1.913-.842-.431-.461-1.05-.743-1.718-.763-.644-.026-1.301.222-1.789.685-.65.617-.928 1.548-.726 2.428l.261 1.13902-1.166.082c-3.01599.226-5.10599-1.06502-6.54099-2.40102.006 2.02.677 4.71502 3.727 6.45302l.958.546-.637.901c-.663.939-1.661 1.538-2.677 1.921.671.16 1.361.242 2.049.242h.012zm.00002 2.003c-.026 0-.054-.001-.08-.003-1.603-.011-3.211-.384-4.655-1.083-.543-.264-.85-.842-.763-1.442.088-.607.554-1.083 1.158-1.181 1.045-.172 1.912-.478 2.54-.887-3.877-2.899-3.775-7.23905-3.524-9.07705.074-.538.457-.987.975-1.144.526-.16 1.071 0 1.431.409 1.536 1.741 3.071 2.616 4.87097 2.749.052-1.165.548-2.288 1.409-3.106.877-.833 2.024-1.269 3.228-1.233 1.205.037 2.323.545 3.147 1.43.084.096.398.27.777.1.497-.223 1.062-.149 1.474.195.411.341.586.878.458 1.401-.323 1.331-.961 2.189-1.283 2.6-.168 5.10505-4.316 10.27205-11.16297 10.27205z" fill="#6b7280" fill-rule="evenodd"/></svg>

<svg width="24" height="24" viewBox="0 0 24 24" fill="none" xmlns="http://www.w3.org/2000/svg">
<g id="Icon/Outline/twitter">
<path id="Mask" fill-rule="evenodd" clip-rule="evenodd" d="M19.0156 6.65431V6.65631V6.65431ZM8.51263 17.9973C8.53663 17.9973 8.56263 17.9983 8.58663 18.0003C14.2816 17.9633 17.6806 13.6123 17.6806 9.40631C17.6806 9.02431 17.8766 8.77731 18.0506 8.55831C18.2086 8.35831 18.4536 8.05031 18.6716 7.60631C17.8786 7.59831 17.1706 7.24631 16.7586 6.76431C16.3276 6.30331 15.7086 6.02131 15.0406 6.00131C14.3966 5.97531 13.7396 6.22331 13.2516 6.68631C12.6016 7.30331 12.3236 8.23431 12.5256 9.11431L12.7866 10.2533L11.6206 10.3353C8.60463 10.5613 6.51463 9.27031 5.07963 7.93431C5.08563 9.95431 5.75663 12.6493 8.80663 14.3873L9.76463 14.9333L9.12763 15.8343C8.46463 16.7733 7.46663 17.3723 6.45063 17.7553C7.12163 17.9153 7.81163 17.9973 8.49963 17.9973H8.51163H8.51263ZM8.51263 20.0003C8.48663 20.0003 8.45863 19.9993 8.43263 19.9973C6.82963 19.9863 5.22163 19.6133 3.77763 18.9143C3.23463 18.6503 2.92763 18.0723 3.01463 17.4723C3.10263 16.8653 3.56863 16.3893 4.17263 16.2913C5.21763 16.1193 6.08463 15.8133 6.71263 15.4043C2.83563 12.5053 2.93763 8.16531 3.18863 6.32731C3.26263 5.78931 3.64563 5.34031 4.16363 5.18331C4.68963 5.02331 5.23463 5.18331 5.59463 5.59231C7.13063 7.33331 8.66563 8.20831 10.4656 8.34131C10.5176 7.17631 11.0136 6.05331 11.8746 5.23531C12.7516 4.40231 13.8986 3.96631 15.1026 4.00231C16.3076 4.03931 17.4256 4.54731 18.2496 5.43231C18.3336 5.52831 18.6476 5.70231 19.0266 5.53231C19.5236 5.30931 20.0886 5.38331 20.5006 5.72731C20.9116 6.06831 21.0866 6.60531 20.9586 7.12831C20.6356 8.45931 19.9976 9.31731 19.6756 9.72831C19.5076 14.8333 15.3596 20.0003 8.51263 20.0003Z" fill="#000000"/>
</g>
</svg>
